src/svg/business.svg

<svg xmlns="http://www.w3.org/2000/svg" class="ionicon" viewBox="0 0 512 512"><title>Business</title><path d="M432 176H320V64a48 48 0 00-48-48H80a48 48 0 00-48 48v416a16 16 0 0016 16h104a8 8 0 008-8v-71.55c0-8.61 6.62-16 15.23-16.43A16 16 0 01192 416v72a8 8 0 008 8h264a16 16 0 0016-16V224a48 48 0 00-48-48zM98.08 431.87a16 16 0 1113.79-13.79 16 16 0 01-13.79 13.79zm0-80a16 16 0 1113.79-13.79 16 16 0 01-13.79 13.79zm0-80a16 16 0 1113.79-13.79 16 16 0 01-13.79 13.79zm0-80a16 16 0 1113.79-13.79 16 16 0 01-13.79 13.79zm0-80a16 16 0 1113.79-13.79 16 16 0 01-13.79 13.79zm80 240a16 16 0 1113.79-13.79 16 16 0 01-13.79 13.79zm0-80a16 16 0 1113.79-13.79 16 16 0 01-13.79 13.79zm0-80a16 16 0 1113.79-13.79 16 16 0 01-13.79 13.79zm0-80a16 16 0 1113.79-13.79 16 16 0 01-13.79 13.79zm80 320a16 16 0 1113.79-13.79 16 16 0 01-13.79 13.79zm0-80a16 16 0 1113.79-13.79 16 16 0 01-13.79 13.79zm0-80a16 16 0 1113.79-13.79 16 16 0 01-13.79 13.79zm0-80a16 16 0 1113.79-13.79 16 16 0 01-13.79 13.79zm0-80a16 16 0 1113.79-13.79 16 16 0 01-13.79 13.79zM444 464H320V208h112a16 16 0 0116 16v236a4 4 0 01-4 4z" fill="currentColor"/><path d="M400 400a16 16 0 1016 16 16 16 0 00-16-16zM400 320a16 16 0 1016 16 16 16 0 00-16-16zM400 240a16 16 0 1016 16 16 16 0 00-16-16zM336 400a16 16 0 1016 16 16 16 0 00-16-16zM336 320a16 16 0 1016 16 16 16 0 00-16-16zM336 240a16 16 0 1016 16 16 16 0 00-16-16z" fill="currentColor"/></svg>

<svg xmlns="http://www.w3.org/2000/svg" width="512" height="512" viewBox="0 0 512 512"><title>ionicons-v5-h</title><path d="M432,176H320V64a48,48,0,0,0-48-48H80A48,48,0,0,0,32,64V480a16,16,0,0,0,16,16H152a8,8,0,0,0,8-8V416.45c0-8.61,6.62-16,15.23-16.43A16,16,0,0,1,192,416v72a8,8,0,0,0,8,8H464a16,16,0,0,0,16-16V224A48,48,0,0,0,432,176ZM98.08,431.87a16,16,0,1,1,13.79-13.79A16,16,0,0,1,98.08,431.87Zm0-80a16,16,0,1,1,13.79-13.79A16,16,0,0,1,98.08,351.87Zm0-80a16,16,0,1,1,13.79-13.79A16,16,0,0,1,98.08,271.87Zm0-80a16,16,0,1,1,13.79-13.79A16,16,0,0,1,98.08,191.87Zm0-80a16,16,0,1,1,13.79-13.79A16,16,0,0,1,98.08,111.87Zm80,240a16,16,0,1,1,13.79-13.79A16,16,0,0,1,178.08,351.87Zm0-80a16,16,0,1,1,13.79-13.79A16,16,0,0,1,178.08,271.87Zm0-80a16,16,0,1,1,13.79-13.79A16,16,0,0,1,178.08,191.87Zm0-80a16,16,0,1,1,13.79-13.79A16,16,0,0,1,178.08,111.87Zm80,320a16,16,0,1,1,13.79-13.79A16,16,0,0,1,258.08,431.87Zm0-80a16,16,0,1,1,13.79-13.79A16,16,0,0,1,258.08,351.87Zm0-80a16,16,0,1,1,13.79-13.79A16,16,0,0,1,258.08,271.87Zm0-80a16,16,0,1,1,13.79-13.79A16,16,0,0,1,258.08,191.87Zm0-80a16,16,0,1,1,13.79-13.79A16,16,0,0,1,258.08,111.87ZM444,464H320V208H432a16,16,0,0,1,16,16V460A4,4,0,0,1,444,464Z"/><path d="M400,400a16,16,0,1,0,16,16,16,16,0,0,0-16-16Z"/><path d="M400,320a16,16,0,1,0,16,16,16,16,0,0,0-16-16Z"/><path d="M400,240a16,16,0,1,0,16,16,16,16,0,0,0-16-16Z"/><path d="M336,400a16,16,0,1,0,16,16,16,16,0,0,0-16-16Z"/><path d="M336,320a16,16,0,1,0,16,16,16,16,0,0,0-16-16Z"/><path d="M336,240a16,16,0,1,0,16,16,16,16,0,0,0-16-16Z"/></svg>
